X:967
T:Tuam na Farraige
T:The Atlantic Roar
T:The Flowers of Loughros
S:Donegal Fiddle Tutor Vol.2
Z:Nigel Gatherer
L:1/8
M:4/4
K:G
(3DEF | G2 GF G2 Bd | (3gag fd e^cAG | F2 FE FAD>F | GB (3AGF GDB,D |
G2 GF G2 Bd (3gag fd e^cAG | F2 FE FAD>F | AB (3AGF GAB=c ||
ded^c dBB=c | (3d=cB gb afd^c | (3BdB GB (3AcA FA | A^GAB AFDF |
d^cde dBB=c | (3d^=cB gb afd^c | (3BdB GB (3AcA FA | G2 GF G2 |]
<end>
<start>
